raw/symbols/icp.svg

<svg width="42" height="42" viewBox="0 0 42 42" fill="none" xmlns="http://www.w3.org/2000/svg">
<circle cx="21" cy="21" r="20" fill="white"/>
<path d="M28.201 14C26.6398 14 24.9303 14.8487 23.1271 16.5228C22.2763 17.3092 21.5269 18.1657 20.9805 18.8431C20.9805 18.8431 21.8547 19.8476 22.8149 20.9299C23.3379 20.2758 24.0795 19.3882 24.9459 18.5862C26.5461 17.0912 27.5922 16.7875 28.1932 16.7875C30.4413 16.7875 32.268 18.6718 32.268 21C32.268 23.3048 30.4413 25.1891 28.1932 25.2124C28.0839 25.2124 27.959 25.1968 27.8029 25.1657C28.4586 25.4694 29.169 25.6874 29.8325 25.6874C33.954 25.6874 34.7659 22.8454 34.8127 22.6429C34.9298 22.1212 35.0001 21.5762 35.0001 21.0156C34.9922 17.1457 31.9479 14 28.201 14Z" fill="url(#paint0_linear_7674_310958)"/>
<path d="M13.799 28.0009C15.3602 28.0009 17.0697 27.1522 18.8729 25.4781C19.7238 24.6917 20.4732 23.8352 21.0196 23.1577C21.0196 23.1577 20.1453 22.1533 19.1852 21.071C18.6622 21.725 17.9206 22.6127 17.0541 23.4147C15.4539 24.8941 14.4001 25.2134 13.8068 25.2134C11.5587 25.2134 9.7321 23.329 9.7321 21.0009C9.7321 18.6961 11.5587 16.8118 13.8068 16.7885C13.9161 16.7885 14.041 16.804 14.1971 16.8352C13.5414 16.5315 12.8311 16.3135 12.1676 16.3135C8.046 16.3057 7.23418 19.1477 7.18734 19.358C7.07025 19.8797 7 20.4247 7 20.9853C7 24.8552 10.0443 28.0009 13.799 28.0009Z" fill="url(#paint1_linear_7674_310958)"/>
<path fill-rule="evenodd" clip-rule="evenodd" d="M16.9367 18.6485C16.484 18.2124 14.2827 16.4294 12.1751 16.3671C8.41257 16.2736 7.31193 18.9989 7.21045 19.3493C7.93641 16.297 10.6217 14.0156 13.8065 14C16.4059 14 19.0365 16.5462 20.9802 18.8431L20.988 18.8354C20.988 18.8354 21.8623 19.8398 22.8225 20.9221C22.8225 20.9221 23.9153 22.2069 25.0706 23.3359C25.5233 23.7719 27.7168 25.5317 29.8244 25.594C33.6884 25.703 34.7578 22.822 34.8125 22.604C34.1021 25.6796 31.4091 27.9688 28.2086 27.9844C25.6092 27.9844 22.9786 25.4382 21.0271 23.1412C21.0271 23.149 21.0193 23.149 21.0193 23.1568C21.0193 23.1568 20.145 22.1524 19.1849 21.0701C19.1927 21.0701 18.0998 19.7775 16.9367 18.6485Z" fill="#29ABE2"/>
<defs>
<linearGradient id="paint0_linear_7674_310958" x1="24.5467" y1="15.1093" x2="34.1456" y2="24.8116" gradientUnits="userSpaceOnUse">
<stop offset="0.21" stop-color="#F15A24"/>
<stop offset="0.6841" stop-color="#FBB03B"/>
</linearGradient>
<linearGradient id="paint1_linear_7674_310958" x1="17.4558" y1="26.8932" x2="7.85693" y2="17.1909" gradientUnits="userSpaceOnUse">
<stop offset="0.21" stop-color="#ED1E79"/>
<stop offset="0.8929" stop-color="#522785"/>
</linearGradient>
</defs>
</svg>

<svg xmlns="http://www.w3.org/2000/svg" width="42" height="42" fill="none"><circle cx="21" cy="21" r="20" fill="#fff"/><path fill="url(#a)" d="M28.201 14c-1.561 0-3.27.849-5.074 2.523-.85.786-1.6 1.643-2.146 2.32 0 0 .874 1.005 1.834 2.087.523-.654 1.264-1.542 2.13-2.344 1.601-1.495 2.647-1.798 3.248-1.798 2.248 0 4.075 1.884 4.075 4.212 0 2.305-1.827 4.19-4.075 4.212a2.02 2.02 0 0 1-.39-.046c.656.303 1.366.521 2.03.521 4.121 0 4.933-2.842 4.98-3.044A7.427 7.427 0 0 0 35 21.016C34.992 17.146 31.948 14 28.201 14Z"/><path fill="url(#b)" d="M13.799 28c1.561 0 3.27-.848 5.074-2.522.85-.786 1.6-1.643 2.147-2.32 0 0-.875-1.005-1.835-2.087-.523.654-1.264 1.542-2.13 2.344-1.601 1.48-2.655 1.798-3.248 1.798-2.248 0-4.075-1.884-4.075-4.212 0-2.305 1.827-4.19 4.075-4.213.11 0 .234.016.39.047-.656-.303-1.366-.521-2.03-.521-4.121-.008-4.933 2.834-4.98 3.044A7.427 7.427 0 0 0 7 20.985c0 3.87 3.044 7.016 6.799 7.016Z"/><path fill="#29ABE2" fill-rule="evenodd" d="M16.937 18.648c-.453-.436-2.654-2.219-4.762-2.28-3.762-.094-4.863 2.63-4.965 2.981.726-3.052 3.412-5.333 6.596-5.349 2.6 0 5.23 2.546 7.174 4.843l.008-.008s.874 1.005 1.835 2.087c0 0 1.092 1.285 2.248 2.414.452.436 2.646 2.196 4.753 2.258 3.864.109 4.934-2.772 4.988-2.99-.71 3.076-3.403 5.365-6.603 5.38-2.6 0-5.23-2.546-7.182-4.843 0 .008-.008.008-.008.016 0 0-.874-1.005-1.834-2.087.008 0-1.085-1.293-2.248-2.422Z" clip-rule="evenodd"/><defs><linearGradient id="a" x1="24.547" x2="34.146" y1="15.109" y2="24.812" gradientUnits="userSpaceOnUse"><stop offset=".21" stop-color="#F15A24"/><stop offset=".684" stop-color="#FBB03B"/></linearGradient><linearGradient id="b" x1="17.456" x2="7.857" y1="26.893" y2="17.191" gradientUnits="userSpaceOnUse"><stop offset=".21" stop-color="#ED1E79"/><stop offset=".893" stop-color="#522785"/></linearGradient></defs></svg>
